X: 31950
T: Pearl Of The White Breast, The
R: barndance
M: 4/4
K: Dmajor
AB/c/|d>c B>A d3B|A>F ED E2 FG|A2 FD GF {F}E>D|D6 AB/c/|
d>c BA d2 FB|A>F ED E2 FG|A>A F2 GF {F}E>D|D2D2D2||
A>G|FABd c3c|dc {c}B>A A2zA|Bcdf edcB|A6 AB/c/|
d>c BA d2 FB|AF E>D E2 FG|A2 FD GF {F}E>D|D6||

